SVG/mobile.svg

<?xml version="1.0" encoding="utf-8"?>
<!-- Generated by IcoMoon.io -->
<!DOCTYPE svg PUBLIC "-//W3C//DTD SVG 1.1//EN" "http://www.w3.org/Graphics/SVG/1.1/DTD/svg11.dtd">
<svg version="1.1" xmlns="http://www.w3.org/2000/svg" xmlns:xlink="http://www.w3.org/1999/xlink" width="6" height="14" viewBox="0 0 6 14">
<path fill="#444444" d="M3.625 11q0-0.258-0.184-0.441t-0.441-0.184-0.441 0.184-0.184 0.441 0.184 0.441 0.441 0.184 0.441-0.184 0.184-0.441zM5.25 9.75v-5.5q0-0.102-0.074-0.176t-0.176-0.074h-4q-0.102 0-0.176 0.074t-0.074 0.176v5.5q0 0.102 0.074 0.176t0.176 0.074h4q0.102 0 0.176-0.074t0.074-0.176zM3.75 3.125q0-0.125-0.125-0.125h-1.25q-0.125 0-0.125 0.125t0.125 0.125h1.25q0.125 0 0.125-0.125zM6 3v8q0 0.406-0.297 0.703t-0.703 0.297h-4q-0.406 0-0.703-0.297t-0.297-0.703v-8q0-0.406 0.297-0.703t0.703-0.297h4q0.406 0 0.703 0.297t0.297 0.703z"></path>
</svg>

<svg xmlns="http://www.w3.org/2000/svg" viewBox="0 0 6 14"><path d="M3.625 11q0-.258-.184-.44T3 10.374t-.44.184-.185.44.184.44.44.185.44-.184.185-.44zM5.25 9.75v-5.5q0-.102-.074-.176T5 4H1q-.102 0-.176.074T.75 4.25v5.5q0 .102.074.176T1 10h4q.102 0 .176-.074t.074-.176zm-1.5-6.625Q3.75 3 3.625 3h-1.25q-.125 0-.125.125t.125.125h1.25q.125 0 .125-.125zM6 3v8q0 .406-.297.703T5 12H1q-.406 0-.703-.297T0 11V3q0-.406.297-.703T1 2h4q.406 0 .703.297T6 3z" /></svg>
